icons/purgatory/icon_card-applepay_xl_black.svg

<?xml version="1.0" encoding="UTF-8"?>
<svg width="36px" height="36px" viewBox="0 0 36 36" version="1.1" xmlns="http://www.w3.org/2000/svg" xmlns:xlink="http://www.w3.org/1999/xlink">
    <!-- Generator: Sketch 47.1 (45422) - http://www.bohemiancoding.com/sketch -->
    <title>icon_card-applepay_xl_black</title>
    <desc>Created with Sketch.</desc>
    <defs></defs>
    <g id="October-2017" stroke="none" stroke-width="1" fill="none" fill-rule="evenodd" opacity="0.300000012">
        <g id="icon_card-applepay_xl_black">
            <g>
                <rect id="_ph_" x="0" y="0" width="36" height="36"></rect>
                <path d="M3,9 C2.44771525,9 2,9.44771525 2,10 L2,26 C2,26.5522847 2.44771525,27 3,27 L33,27 C33.5522847,27 34,26.5522847 34,26 L34,10 C34,9.44771525 33.5522847,9 33,9 L3,9 Z M3,8 L33,8 C34.1045695,8 35,8.8954305 35,10 L35,26 C35,27.1045695 34.1045695,28 33,28 L3,28 C1.8954305,28 1,27.1045695 1,26 L1,10 C1,8.8954305 1.8954305,8 3,8 Z" id="Shape" fill="#0B1F35" fill-rule="nonzero"></path>
                <path d="M16.1346003,17.9176012 L17.4364089,17.9176012 C18.4242634,17.9176012 18.9864967,17.3778358 18.9864967,16.4420974 C18.9864967,15.5065567 18.4242634,14.971736 17.4414759,14.971736 L16.1346003,14.971736 L16.1346003,17.9176012 Z M17.7404241,14 C19.158772,14 20.1466265,14.992306 20.1466265,16.4369548 C20.1466265,17.8867462 19.1385043,18.8841947 17.7049557,18.8841947 L16.1346003,18.8841947 L16.1346003,21.4188572 L15,21.4188572 L15,14 L17.7404241,14 L17.7404241,14 Z M20.4280354,19.8816432 C20.4280354,18.9304773 21.1422762,18.3855693 22.4592856,18.3032892 L23.8725665,18.2158666 L23.8725665,17.8046639 C23.8725665,17.2029906 23.4826086,16.8740679 22.7886354,16.8740679 C22.2160735,16.8740679 21.8007809,17.1721355 21.7146433,17.6298186 L20.6913203,17.6298186 C20.7219167,16.6683676 21.6133049,15.9691845 22.8190369,15.9691845 C24.1157787,15.9691845 24.9617594,16.6580826 24.9617594,17.7275263 L24.9617594,21.4188572 L23.9131019,21.4188572 L23.9131019,20.5294013 L23.8877673,20.5294013 C23.5890139,21.1103068 22.9303143,21.475227 22.2160735,21.475227 C21.1625439,21.475227 20.4280354,20.8379517 20.4280354,19.8816432 L20.4280354,19.8816432 Z M23.8725665,19.4035879 C23.8725665,20.0974307 23.2900656,20.5962539 22.5200887,20.5962539 C21.9173201,20.5962539 21.532429,20.303131 21.532429,19.8507882 C21.532429,19.3828201 21.9021193,19.1156075 22.6112932,19.0693249 L23.8725665,18.9870448 L23.8725665,19.4035879 Z M25.9258384,23.4032714 L25.9258384,22.5140133 C25.9967752,22.5241006 26.1688556,22.5343856 26.2600602,22.5343856 C26.7614904,22.5343856 27.0452379,22.3185981 27.2175132,21.7632073 L27.3188516,21.4342847 L25.3988787,16.0360371 L26.5841482,16.0360371 L27.9216202,20.4162661 L27.9469548,20.4162661 L29.2842319,16.0360371 L30.4392947,16.0360371 L28.448385,21.7068376 C27.992557,23.0074962 27.4706643,23.4343243 26.3664655,23.4343243 C26.2803279,23.4343243 26.0016473,23.4240392 25.9258384,23.4032714 Z" id="Fill-6" fill="#0B1F35"></path>
                <path d="M10.6640093,14.862255 C10.3631487,15.2186978 9.88607874,15.5011777 9.40859462,15.4593907 C9.34647613,14.9773781 9.58521819,14.4644431 9.85501949,14.1502052 C10.1554659,13.7831067 10.6745694,13.5213114 11.099874,13.5 C11.1518465,14.003115 10.9547238,14.4955744 10.6640093,14.862255 Z M11.0942834,15.5536203 C11.3634635,15.5745138 12.1395305,15.6580877 12.6362713,16.3993885 C12.594859,16.4311466 11.7152612,16.9428279 11.7258213,18.0188423 C11.7359673,19.3037914 12.8429188,19.7321078 12.853479,19.7427634 C12.8429188,19.7743126 12.6776836,20.3488833 12.2741205,20.9439297 C11.9223228,21.4666846 11.559965,21.9785749 10.9806065,21.9890217 C10.4217472,21.9994684 10.2353917,21.654517 9.59412184,21.654517 C8.95264491,21.654517 8.74558327,21.9785749 8.21778318,21.9994684 C7.6591309,22.019944 7.23506868,21.4451643 6.88327097,20.9230362 C6.15876232,19.8679154 5.61025606,17.945924 6.35526381,16.6501103 C6.71762166,16.0024123 7.37980476,15.5951984 8.0935462,15.5847516 C8.64205246,15.5745138 9.14914639,15.9505965 9.480445,15.9505965 C9.81153655,15.9505965 10.401041,15.5118334 11.0942834,15.5536203 Z" id="Path" fill="#0B1F35"></path>
            </g>
        </g>
    </g>
</svg>

<svg width="36" height="36" viewBox="0 0 36 36" xmlns="http://www.w3.org/2000/svg">
  <g fill="none" fill-rule="evenodd" opacity=".3">
    <path d="M0 0h36v36H0z"/>
    <path d="M3 9c-.552 0-1 .448-1 1v16c0 .552.448 1 1 1h30c.552 0 1-.448 1-1V10c0-.552-.448-1-1-1H3zm0-1h30c1.105 0 2 .895 2 2v16c0 1.105-.895 2-2 2H3c-1.105 0-2-.895-2-2V10c0-1.105.895-2 2-2z" fill="#0B1F35" fill-rule="nonzero"/>
    <path d="M16.135 17.918h1.3c.99 0 1.55-.54 1.55-1.476 0-.935-.56-1.47-1.544-1.47h-1.305v2.946zM17.74 14c1.42 0 2.407.992 2.407 2.437 0 1.45-1.008 2.447-2.442 2.447h-1.57v2.535H15V14h2.74zm2.688 5.882c0-.952.714-1.496 2.03-1.58l1.415-.086v-.41c0-.603-.39-.932-1.084-.932-.574 0-.99.298-1.075.756H20.69c.032-.962.923-1.66 2.13-1.66 1.296 0 2.142.688 2.142 1.758v3.69h-1.05v-.89h-.024c-.3.582-.958.947-1.672.947-1.053 0-1.788-.637-1.788-1.593zm3.445-.478c0 .693-.583 1.192-1.353 1.192-.603 0-.988-.293-.988-.745 0-.467.37-.734 1.08-.78l1.26-.083v.417zm2.053 4v-.89c.07.01.243.02.334.02.5 0 .785-.215.958-.77l.1-.33-1.92-5.398h1.186l1.338 4.38h.025l1.337-4.38h1.155l-1.992 5.67c-.455 1.3-.977 1.728-2.082 1.728-.086 0-.364-.01-.44-.03zM10.664 14.862c-.3.357-.778.64-1.255.597-.064-.483.175-.996.445-1.31.3-.367.82-.63 1.245-.65.052.503-.145.996-.436 1.362zm.43.692c.27.02 1.046.104 1.542.845-.04.03-.92.543-.91 1.62.01 1.284 1.117 1.712 1.127 1.723-.01.03-.175.606-.58 1.2-.35.524-.713 1.036-1.292 1.046-.558.01-.745-.335-1.386-.335-.64 0-.848.324-1.376.344-.56.02-.983-.555-1.335-1.077-.724-1.055-1.273-2.977-.528-4.273.363-.648 1.025-1.055 1.74-1.065.547-.01 1.054.366 1.385.366.332 0 .92-.438 1.614-.396z" fill="#0B1F35"/>
  </g>
</svg>
